SVG_Azure_Grouped/Storage/Disk Encryption Set.svg

<?xml version="1.0" encoding="UTF-8" standalone="no"?>
<!-- Generated by Microsoft Visio, SVG Export Disk Encryption Set.svg Page-1 -->

<svg
   xmlns:dc="http://purl.org/dc/elements/1.1/"
   xmlns:cc="http://creativecommons.org/ns#"
   xmlns:rdf="http://www.w3.org/1999/02/22-rdf-syntax-ns#"
   xmlns:svg="http://www.w3.org/2000/svg"
   xmlns="http://www.w3.org/2000/svg"
   xmlns:sodipodi="http://sodipodi.sourceforge.net/DTD/sodipodi-0.dtd"
   xmlns:inkscape="http://www.inkscape.org/namespaces/inkscape"
   width="0.78735679in"
   height="0.78735679in"
   viewBox="0 0 56.689597 56.69"
   xml:space="preserve"
   class="st7"
   version="1.1"
   id="svg82"
   sodipodi:docname="Disk Encryption Set.svg"
   style="font-size:12px;overflow:visible;color-interpolation-filters:sRGB;fill:none;fill-rule:evenodd;stroke-linecap:square;stroke-miterlimit:3"
   inkscape:version="0.92.5 (2060ec1f9f, 2020-04-08)"><metadata
   id="metadata86"><rdf:RDF><cc:Work
       rdf:about=""><dc:format>image/svg+xml</dc:format><dc:type
         rdf:resource="http://purl.org/dc/dcmitype/StillImage" /></cc:Work></rdf:RDF></metadata><sodipodi:namedview
   pagecolor="#ffffff"
   bordercolor="#666666"
   borderopacity="1"
   objecttolerance="10"
   gridtolerance="10"
   guidetolerance="10"
   inkscape:pageopacity="0"
   inkscape:pageshadow="2"
   inkscape:window-width="640"
   inkscape:window-height="480"
   id="namedview84"
   showgrid="false"
   inkscape:zoom="1.4193119"
   inkscape:cx="37.795128"
   inkscape:cy="37.786193"
   inkscape:window-x="0"
   inkscape:window-y="0"
   inkscape:window-maximized="0"
   inkscape:current-layer="svg82" />
	<style
   type="text/css"
   id="style2">
	<![CDATA[
		.st1 {fill:#0078d4;stroke:none;stroke-linecap:butt;stroke-width:34}
		.st2 {fill:#76bc2d;stroke:none;stroke-linecap:butt;stroke-width:34}
		.st3 {fill:url(#grad4-10);stroke:none;stroke-linecap:butt;stroke-width:34}
		.st4 {fill:#005ba1;stroke:none;stroke-linecap:butt;stroke-width:34}
		.st5 {fill:#c3f1ff;fill-opacity:0.75;stroke:none;stroke-linecap:butt;stroke-width:34}
		.st6 {fill:#5e9624;stroke:none;stroke-linecap:butt;stroke-width:34}
		.st7 {fill:none;fill-rule:evenodd;font-size:12px;overflow:visible;stroke-linecap:square;stroke-miterlimit:3}
	]]>
	</style>

	<defs
   id="Patterns_And_Gradients">
		<radialGradient
   id="grad4-10"
   cx="11.848796"
   cy="170.75463"
   r="26.067352"
   gradientTransform="scale(1.559247,0.64133519)"
   fx="11.848796"
   fy="170.75463"
   gradientUnits="userSpaceOnUse">
			<stop
   offset="0"
   stop-color="#5ea0ef"
   stop-opacity="1"
   id="stop4" />
			<stop
   offset="0.11"
   stop-color="#519aeb"
   stop-opacity="1"
   id="stop6" />
			<stop
   offset="0.51"
   stop-color="#2588df"
   stop-opacity="1"
   id="stop8" />
			<stop
   offset="0.82"
   stop-color="#0a7cd7"
   stop-opacity="1"
   id="stop10" />
			<stop
   offset="1"
   stop-color="#0078d4"
   stop-opacity="1"
   id="stop12" />
		</radialGradient>
	</defs>
	<g
   id="g80"
   transform="translate(-34.000441,-34.0043)">
		<title
   id="title16">Page-1</title>
		<g
   id="group20362-1"
   transform="translate(34,-34.0157)">
			<title
   id="title18">Disk Encryption Set.20362</title>
			<g
   id="group20363-2">
				<title
   id="title20">Sheet.20363</title>
				<g
   id="shape20364-3">
					<title
   id="title22">Sheet.20364</title>
					<path
   d="m 5.4,68.02 h 6.61 v 1.9 H 5.4 Z m 48.36,1.9 h 1.07 v 1 h 1.83 v -2.9 h -2.9 z M 3,122.68 H 2.07 v -1.07 H 0 v 3.1 h 3 v -2 z m 51.86,-1 v 1 h -1.07 v 2 h 2.9 v -3 z M 2.1,70.88 v -1 H 3.03 V 68.02 H 0 v 2.86 z m 13.14,-2.86 h 6.57 v 1.9 h -6.57 z m 9.77,0 h 6.57 v 1.9 h -6.57 z m 9.87,0 h 6.57 v 1.9 h -6.57 z m 9.81,0 h 6.57 v 1.9 H 44.69 Z M 5.47,122.68 h 6.54 v 1.9 H 5.47 Z m 9.8,0 h 6.57 v 1.9 h -6.57 z m 9.84,0 h 6.57 v 1.9 h -6.57 z m 9.84,0 h 6.57 v 1.9 h -6.57 z m 9.8,0 h 6.57 v 1.9 h -6.57 z m 10.01,-49.5 h 1.9 v 6.57 h -1.9 z m 0,9.83 h 1.9 v 6.57 h -1.9 z m 0,9.8 h 1.9 v 6.54 h -1.9 z m 0,9.8 h 1.9 v 6.57 h -1.9 z m 0,9.83 h 1.9 v 6.57 h -1.9 z M 0,73.12 h 1.9 v 6.56 H 0 Z m 0,9.83 h 1.9 v 6.56 H 0 Z m 0,9.8 h 1.9 v 6.6 H 0 Z m 0,9.83 h 1.9 v 6.56 H 0 Z m 0,9.76 h 1.9 v 6.57 H 0 Z"
   class="st1"
   id="path24"
   inkscape:connector-curvature="0"
   style="fill:#0078d4;stroke:none;stroke-width:34;stroke-linecap:butt" />
				</g>
				<g
   id="shape20365-5"
   transform="translate(7.80361,-17.0312)">
					<title
   id="title27">Sheet.20365</title>
					<path
   d="m 24.88,120.04 a 5.00232,4.99938 0 0 1 0,-7.03 l 2.53,-2.53 a 40.4521,40.4283 -180 0 0 -8.9,-0.97 c -10.24,0 -18.51,3.33 -18.51,7.6 0,4.27 8.2,7.6 18.48,7.6 a 39.4516,39.4284 -180 0 0 9.77,-1.33 z"
   class="st2"
   id="path29"
   inkscape:connector-curvature="0"
   style="fill:#76bc2d;stroke:none;stroke-width:34;stroke-linecap:butt" />
				</g>
				<g
   id="shape20366-7"
   transform="translate(7.80361,-33.9291)">
					<title
   id="title32">Sheet.20366</title>
					<ellipse
   cx="18.475201"
   cy="117.11"
   rx="18.475201"
   ry="7.59905"
   class="st3"
   id="ellipse34"
   style="fill:url(#grad4-10);stroke:none;stroke-width:34;stroke-linecap:butt" />
				</g>
				<g
   id="shape20367-11"
   transform="translate(20.5762,-39.9617)">
					<title
   id="title37">Sheet.20367</title>
					<ellipse
   cx="6.1361699"
   cy="123.042"
   rx="6.1361699"
   ry="1.66646"
   class="st4"
   id="ellipse39"
   style="fill:#005ba1;stroke:none;stroke-width:34;stroke-linecap:butt" />
				</g>
				<g
   id="group20368-13"
   transform="translate(7.77026,-4.88034)">
					<title
   id="title42">Sheet.20368</title>
					<g
   id="shape20369-14"
   transform="translate(24.9581)">
						<title
   id="title44">Sheet.20369</title>
						<path
   d="m 17.56,106.73 a 3.33488,3.33292 -180 0 0 0,-4.8 l -5.87,-5.9 a 3.33488,3.33292 -180 0 0 -4.8,0 l -5.87,5.86 a 3.33488,3.33292 -180 0 0 0,4.8 l 4.9,5 a 1.06716,1.06653 0 0 1 0.27,0.67 v 9.1 a 1.16721,1.16652 -180 0 0 0.33,0.8 l 2.24,2.23 a 0.800371,0.7999 -180 0 0 1.10051,0 l 3.39949,-3.4 a 0.466883,0.466608 -180 0 0 0,-0.63325 l -1,-0.93675 a 0.433534,0.433279 0 0 1 0,-0.66658 l 0.9,-0.93342 a 0.466883,0.466608 -180 0 0 0,-0.63325 L 12.26,116.39 a 0.466883,0.466608 0 0 1 0,-0.69991 l 0.9,-0.90009 a 0.466883,0.466608 -180 0 0 0,-0.63325 L 11.89,112.82 v -0.43 z M 9.29,97.46 a 1.93423,1.93309 0 1 1 0,3.77 1.9361411,1.935 0 0 1 0,-3.87 z"
   class="st1"
   id="path46"
   inkscape:connector-curvature="0"
   style="fill:#0078d4;stroke:none;stroke-width:34;stroke-linecap:butt" />
					</g>
					<g
   id="shape20370-16"
   transform="translate(0,-25.0159)">
						<title
   id="title49">Sheet.20370</title>
						<path
   d="m 30.75,119.91 a 4.96897,4.96605 0 0 1 3.33,-1.47 5.30245,5.29934 0 0 1 2.17,0.5 4.00185,3.9995 -180 0 0 0.57,-1.6 v -4.43 c 0,4.17 -8.27,7.57 -18.48,7.57 C 8.14,120.48 0,117.14 0,112.91 v 4.2 c 0,4.2 8.27,7.6 18.51,7.6 a 42.1862,42.1614 -180 0 0 8.27,-0.8 z"
   class="st1"
   id="path51"
   inkscape:connector-curvature="0"
   style="fill:#0078d4;stroke:none;stroke-width:34;stroke-linecap:butt" />
					</g>
				</g>
				<g
   id="group20371-18"
   transform="translate(37.3506,-7.91171)">
					<title
   id="title55">Sheet.20371</title>
					<g
   id="shape20372-19"
   transform="translate(2.97011)">
						<title
   id="title57">Sheet.20372</title>
						<path
   d="m 0.2,124.59 a 0.433534,0.433279 -180 0 0 0.600278,0 0.366836,0.366621 -180 0 0 0,-0.26663 L 0.8,116.82 a 0.566929,0.566596 -180 0 0 -0.200093,-0.36662 0.433534,0.433279 -180 0 0 -0.566929,0 0.233441,0.233304 -180 0 0 0,0.2333 L 0.03,124.25 a 0.366836,0.366621 -180 0 0 0.166744,0.33329 z"
   class="st5"
   id="path59"
   inkscape:connector-curvature="0"
   style="fill:#c3f1ff;fill-opacity:0.75;stroke:none;stroke-width:34;stroke-linecap:butt" />
					</g>
					<g
   id="shape20373-21"
   transform="translate(0,-16.6852)">
						<title
   id="title62">Sheet.20373</title>
						<path
   d="m 0,124.18 a 0.533593,0.533279 -180 0 0 0.53358,0.53327 L 9.1,124.71 a 0.533593,0.533279 -180 0 0 0.53358,-0.53327 L 9.64,124.11 A 0.533593,0.533279 -180 0 0 9.10642,123.57673 L 0.53,123.58 a 0.533593,0.533279 -180 0 0 -0.53358,0.53327 z"
   class="st5"
   id="path64"
   inkscape:connector-curvature="0"
   style="fill:#c3f1ff;fill-opacity:0.75;stroke:none;stroke-width:34;stroke-linecap:butt" />
					</g>
					<g
   id="shape20374-23"
   transform="translate(0,-14.8188)">
						<title
   id="title67">Sheet.20374</title>
						<path
   d="m 0,124.18 a 0.533593,0.533279 -180 0 0 0.53358,0.53327 L 9.1,124.71 a 0.533593,0.533279 -180 0 0 0.53358,-0.53327 L 9.64,124.11 A 0.533593,0.533279 -180 0 0 9.10642,123.57673 L 0.53,123.58 a 0.533593,0.533279 -180 0 0 -0.53358,0.53327 z"
   class="st5"
   id="path69"
   inkscape:connector-curvature="0"
   style="fill:#c3f1ff;fill-opacity:0.75;stroke:none;stroke-width:34;stroke-linecap:butt" />
					</g>
				</g>
				<g
   id="shape20375-25"
   transform="translate(7.77026,-12.9984)">
					<title
   id="title73">Sheet.20375</title>
					<path
   d="m 29.58,120.74 -1.4,-1.4 a 40.7189,40.6949 0 0 1 -9.67,1.14 C 8.27,120.48 0,117.14 0,112.88 v 4.23 c 0,4.2 8.27,7.6 18.51,7.6 a 39.0848,39.0618 -180 0 0 11.07,-1.53 z m -6.1,-8.93 a 16.3742,16.3646 -180 0 0 -4.54,-0.57 c -3.33,0 -6.13,0.77 -6.13,1.67 0,0.9 2.76,1.67 6.13,1.67 a 16.3075,16.298 -180 0 0 4.77,-0.64 5.30245,5.29934 0 0 1 -0.23,-2.16 z"
   class="st6"
   id="path75"
   inkscape:connector-curvature="0"
   style="fill:#5e9624;stroke:none;stroke-width:34;stroke-linecap:butt" />
				</g>
			</g>
		</g>
	</g>
</svg>

<?xml version="1.0" encoding="UTF-8" standalone="no"?>
<!DOCTYPE svg PUBLIC "-//W3C//DTD SVG 1.1//EN" "http://www.w3.org/Graphics/SVG/1.1/DTD/svg11.dtd">
<!-- Generated by Microsoft Visio, SVG Export Disk Encryption Set.svg Page-1 -->
<svg xmlns="http://www.w3.org/2000/svg" xmlns:xlink="http://www.w3.org/1999/xlink" xmlns:ev="http://www.w3.org/2001/xml-events"
		width="1.73185in" height="1.73206in" viewBox="0 0 124.693 124.709" xml:space="preserve" color-interpolation-filters="sRGB"
		class="st7">
	<style type="text/css">
	<![CDATA[
		.st1 {fill:#0078d4;stroke:none;stroke-linecap:butt;stroke-width:34}
		.st2 {fill:#76bc2d;stroke:none;stroke-linecap:butt;stroke-width:34}
		.st3 {fill:url(#grad4-10);stroke:none;stroke-linecap:butt;stroke-width:34}
		.st4 {fill:#005ba1;stroke:none;stroke-linecap:butt;stroke-width:34}
		.st5 {fill:#c3f1ff;fill-opacity:0.75;stroke:none;stroke-linecap:butt;stroke-width:34}
		.st6 {fill:#5e9624;stroke:none;stroke-linecap:butt;stroke-width:34}
		.st7 {fill:none;fill-rule:evenodd;font-size:12px;overflow:visible;stroke-linecap:square;stroke-miterlimit:3}
	]]>
	</style>

	<defs id="Patterns_And_Gradients">
		<radialGradient id="grad4-10" cx="0.5" cy="0" r="1.1">
			<stop offset="0" stop-color="#5ea0ef" stop-opacity="1"/>
			<stop offset="0.11" stop-color="#519aeb" stop-opacity="1"/>
			<stop offset="0.51" stop-color="#2588df" stop-opacity="1"/>
			<stop offset="0.82" stop-color="#0a7cd7" stop-opacity="1"/>
			<stop offset="1" stop-color="#0078d4" stop-opacity="1"/>
		</radialGradient>
	</defs>
	<g>
		<title>Page-1</title>
		<g id="group19907-1" transform="translate(34,-34.0157)">
			<title>Disk Encryption Set.19907</title>
			<g id="group19908-2">
				<title>Sheet.19908</title>
				<g id="shape19909-3">
					<title>Sheet.19909</title>
					<path d="M5.4 68.02 L12.01 68.02 L12.01 69.92 L5.4 69.92 L5.4 68.02 ZM53.76 69.92 L54.83 69.92 L54.83 70.92 L56.66
								 70.92 L56.66 68.02 L53.76 68.02 L53.76 69.92 ZM3 122.68 L2.07 122.68 L2.07 121.61 L0 121.61 L0 124.71
								 L3 124.71 L3 122.71 L3 122.68 ZM54.86 121.68 L54.86 122.68 L53.79 122.68 L53.79 124.68 L56.69 124.68
								 L56.69 121.68 L54.86 121.68 ZM2.1 70.88 L2.1 69.88 L3.03 69.88 L3.03 68.02 L0 68.02 L0 70.88 L2.1
								 70.88 ZM15.24 68.02 L21.81 68.02 L21.81 69.92 L15.24 69.92 L15.24 68.02 ZM25.01 68.02 L31.58 68.02
								 L31.58 69.92 L25.01 69.92 L25.01 68.02 ZM34.88 68.02 L41.45 68.02 L41.45 69.92 L34.88 69.92 L34.88
								 68.02 ZM44.69 68.02 L51.26 68.02 L51.26 69.92 L44.69 69.92 L44.69 68.02 ZM5.47 122.68 L12.01 122.68
								 L12.01 124.58 L5.47 124.58 L5.47 122.68 ZM15.27 122.68 L21.84 122.68 L21.84 124.58 L15.27 124.58
								 L15.27 122.68 ZM25.11 122.68 L31.68 122.68 L31.68 124.58 L25.11 124.58 L25.11 122.68 ZM34.95 122.68
								 L41.52 122.68 L41.52 124.58 L34.95 124.58 L34.95 122.68 ZM44.75 122.68 L51.32 122.68 L51.32 124.58
								 L44.75 124.58 L44.75 122.68 ZM54.76 73.18 L56.66 73.18 L56.66 79.75 L54.76 79.75 L54.76 73.18 ZM54.76
								 83.01 L56.66 83.01 L56.66 89.58 L54.76 89.58 L54.76 83.01 ZM54.76 92.81 L56.66 92.81 L56.66 99.35
								 L54.76 99.35 L54.76 92.81 ZM54.76 102.61 L56.66 102.61 L56.66 109.18 L54.76 109.18 L54.76 102.61
								 ZM54.76 112.44 L56.66 112.44 L56.66 119.01 L54.76 119.01 L54.76 112.44 ZM0 73.12 L1.9 73.12 L1.9
								 79.68 L0 79.68 L0 73.12 ZM0 82.95 L1.9 82.95 L1.9 89.51 L0 89.51 L0 82.95 ZM0 92.75 L1.9 92.75 L1.9
								 99.35 L0 99.35 L0 92.75 ZM0 102.58 L1.9 102.58 L1.9 109.14 L0 109.14 L0 102.58 ZM0 112.34 L1.9 112.34
								 L1.9 118.91 L0 118.91 L0 112.34 Z" class="st1"/>
				</g>
				<g id="shape19910-5" transform="translate(7.80361,-17.0312)">
					<title>Sheet.19910</title>
					<path d="M24.88 120.04 A5.00232 4.99938 0 0 1 24.88 113.01 L27.41 110.48 A40.4521 40.4283 -180 0 0 18.51 109.51
								 C8.27 109.51 0 112.84 0 117.11 C0 121.38 8.2 124.71 18.48 124.71 A39.4516 39.4284 -180 0 0 28.25
								 123.38 L24.88 120.04 Z" class="st2"/>
				</g>
				<g id="shape19911-7" transform="translate(7.80361,-33.9291)">
					<title>Sheet.19911</title>
					<ellipse cx="18.4752" cy="117.11" rx="18.4752" ry="7.59905" class="st3"/>
				</g>
				<g id="shape19912-11" transform="translate(20.5762,-39.9617)">
					<title>Sheet.19912</title>
					<ellipse cx="6.13617" cy="123.042" rx="6.13617" ry="1.66646" class="st4"/>
				</g>
				<g id="group19913-13" transform="translate(7.77026,-4.88034)">
					<title>Sheet.19913</title>
					<g id="shape19914-14" transform="translate(24.9581,0)">
						<title>Sheet.19914</title>
						<path d="M17.56 106.73 A3.33488 3.33292 -180 0 0 17.56 101.93 L11.69 96.03 A3.33488 3.33292 -180 0 0 6.89
									 96.03 L1.02 101.89 A3.33488 3.33292 -180 0 0 1.02 106.69 L5.92 111.69 A1.06716 1.06653 0 0 1
									 6.19 112.36 L6.19 121.46 A1.16721 1.16652 -180 0 0 6.52 122.26 L8.76 124.49 a0.800371 0.7999
									 -180 0 0 1.10051 0 L13.26 121.09 a0.466883 0.466608 -180 0 0 7.10543E-15 -0.633254 L12.26 119.52
									 a0.433534 0.433279 0 0 1 -2.84217E-14 -0.666583 L13.16 117.92 a0.466883 0.466608 -180 0 0 1.95399E-14
									 -0.633254 L12.26 116.39 a0.466883 0.466608 0 0 1 3.55271E-15 -0.699913 L13.16 114.79 a0.466883
									 0.466608 -180 0 0 1.77636E-15 -0.633254 L11.89 112.82 L11.89 112.39 L17.56 106.73 ZM9.29 97.46
									 A1.93423 1.93309 0 1 1 9.29 101.23 A1.93423 1.93309 0 0 1 9.29 97.36 L9.29 97.46 Z"
								class="st1"/>
					</g>
					<g id="shape19915-16" transform="translate(2.15827E-13,-25.0159)">
						<title>Sheet.19915</title>
						<path d="M30.75 119.91 A4.96897 4.96605 0 0 1 34.08 118.44 A5.30245 5.29934 0 0 1 36.25 118.94 A4.00185 3.9995
									 -180 0 0 36.82 117.34 L36.82 112.91 C36.82 117.08 28.55 120.48 18.34 120.48 C8.14 120.48 0 117.14
									 0 112.91 L0 117.11 C0 121.31 8.27 124.71 18.51 124.71 A42.1862 42.1614 -180 0 0 26.78 123.91
									 L30.75 119.91 Z" class="st1"/>
					</g>
				</g>
				<g id="group19916-18" transform="translate(37.3506,-7.91171)">
					<title>Sheet.19916</title>
					<g id="shape19917-19" transform="translate(2.97011,0)">
						<title>Sheet.19917</title>
						<path d="M0.2 124.59 a0.433534 0.433279 -180 0 0 0.600278 0 a0.366836 0.366621 -180 0 0 -3.33067E-16 -0.266633
									 L0.8 116.82 a0.566929 0.566596 -180 0 0 -0.200093 -0.366621 a0.433534 0.433279 -180 0 0 -0.566929
									 -1.42109E-14 a0.233441 0.233304 -180 0 0 9.71445E-16 0.233304 L0.03 124.25 a0.366836 0.366621
									 -180 0 0 0.166744 0.333292 Z" class="st5"/>
					</g>
					<g id="shape19918-21" transform="translate(0,-16.6852)">
						<title>Sheet.19918</title>
						<path d="M0 124.18 a0.533593 0.533279 -180 0 0 0.53358 0.533267 L9.1 124.71 a0.533593 0.533279 -180 0 0 0.53358
									 -0.533267 L9.64 124.11 a0.533593 0.533279 -180 0 0 -0.53358 -0.533267 L0.53 123.58 a0.533593
									 0.533279 -180 0 0 -0.53358 0.533267 L0 124.18 Z" class="st5"/>
					</g>
					<g id="shape19919-23" transform="translate(0,-14.8188)">
						<title>Sheet.19919</title>
						<path d="M0 124.18 a0.533593 0.533279 -180 0 0 0.53358 0.533267 L9.1 124.71 a0.533593 0.533279 -180 0 0 0.53358
									 -0.533267 L9.64 124.11 a0.533593 0.533279 -180 0 0 -0.53358 -0.533267 L0.53 123.58 a0.533593
									 0.533279 -180 0 0 -0.53358 0.533267 L0 124.18 Z" class="st5"/>
					</g>
				</g>
				<g id="shape19920-25" transform="translate(7.77026,-12.9984)">
					<title>Sheet.19920</title>
					<path d="M29.58 120.74 L28.18 119.34 A40.7189 40.6949 0 0 1 18.51 120.48 C8.27 120.48 0 117.14 0 112.88 L0 117.11
								 C0 121.31 8.27 124.71 18.51 124.71 A39.0848 39.0618 -180 0 0 29.58 123.18 L29.58 120.74 ZM23.48
								 111.81 A16.3742 16.3646 -180 0 0 18.94 111.24 C15.61 111.24 12.81 112.01 12.81 112.91 C12.81 113.81
								 15.57 114.58 18.94 114.58 A16.3075 16.298 -180 0 0 23.71 113.94 A5.30245 5.29934 0 0 1 23.48 111.78
								 L23.48 111.81 Z" class="st6"/>
				</g>
			</g>
		</g>
	</g>
</svg>
